assets/Man judge/Dark/Flat/man_judge_flat_dark.svg

<svg width="32" height="32" viewBox="0 0 32 32" fill="none" xmlns="http://www.w3.org/2000/svg">
<path d="M23 30L25 24L23 18.5H9L7 24L9 30H23Z" fill="#212121"/>
<path d="M23 30V18.5935C21.6303 21.0539 19.0178 22.72 16 22.72C12.9833 22.72 10.3625 21.0551 9.00005 18.5961V30H5.00005V26.5C4.99005 23.09 6.57005 20.03 9.00005 18V18.0128C10.9012 16.4481 13.3391 15.5 16 15.5C18.661 15.5 21.0989 16.4388 23 18.0118V18C25.45 20.02 27 23.09 27 26.5V30H23Z" fill="black"/>
<path d="M12.5 29.99V24.74C12.5 24.46 12.28 24.24 12 24.24C11.72 24.24 11.5 24.46 11.5 24.74V29.99H12.5Z" fill="black"/>
<path d="M16.5 29.99V24.74C16.5 24.46 16.28 24.24 16 24.24C15.72 24.24 15.5 24.46 15.5 24.74V29.99H16.5Z" fill="black"/>
<path d="M20.5 29.99V24.74C20.5 24.46 20.28 24.24 20 24.24C19.72 24.24 19.5 24.46 19.5 24.74V29.99H20.5Z" fill="black"/>
<path d="M16.9201 19.69L16.2701 20.27C16.1101 20.41 15.8801 20.41 15.7201 20.27L15.0701 19.69C14.3501 19.04 13.9301 18.11 13.9301 17.14V14.05C13.9401 12.92 14.8601 12 16.0001 12C17.1401 12 18.0601 12.92 18.0601 14.06V17.15C18.0501 18.12 17.6401 19.04 16.9201 19.69Z" fill="#9B9B9B"/>
<path d="M18.0499 15.21H15.9999H13.9399V17.15C13.9399 18.12 14.3499 19.05 15.0799 19.7C15.1499 19.76 15.2599 19.75 15.3199 19.67L15.8999 18.83C15.9499 18.75 16.0699 18.75 16.1199 18.83L16.6999 19.67C16.7499 19.75 16.8599 19.76 16.9399 19.7C17.6599 19.05 18.0799 18.12 18.0799 17.15V15.21H18.0499Z" fill="#E6E6E6"/>
<path d="M26.9946 23C27.552 23 28 23.4073 28 23.9139V26H26.0002V23.9139C25.9893 23.4073 26.4373 23 26.9946 23Z" fill="#422426"/>
<path d="M22.62 20.99C22.16 20.99 21.78 20.62 21.78 20.15V17.82C21.78 17.36 22.15 16.98 22.62 16.98C23.08 16.98 23.46 17.35 23.46 17.82V18L23.4601 17.5C23.4601 17.22 23.6901 17 23.9601 17H26.8401C27.1101 17 27.3301 17.22 27.3401 17.5V17.6899C27.4021 17.2905 27.7452 16.98 28.1701 16.98C28.6301 16.98 29.0101 17.35 29.0101 17.82V20.15C29.0001 20.62 28.6301 20.99 28.1701 20.99C27.7537 20.99 27.4029 20.6869 27.3401 20.2808V20.5C27.3401 20.78 27.1101 21 26.8401 21H26.32C26.5505 21.047 26.7188 21.2531 26.7101 21.49C26.7101 21.77 26.4901 21.99 26.2101 21.99H26.1401V27.37H24.6401V21.99H24.5701C24.2901 21.99 24.0701 21.77 24.0701 21.49C24.0701 21.245 24.2385 21.046 24.4681 21H23.9601C23.6801 21 23.4601 20.77 23.4601 20.5V20L23.46 20.15C23.46 20.62 23.08 20.99 22.62 20.99Z" fill="#7D4533"/>
<path d="M24.2018 24.5105C23.8284 24.5105 23.5096 24.8457 23.5005 25.2752C23.4913 25.5581 23.6189 25.8095 23.8101 25.9562C23.628 26.0924 23.5005 26.3333 23.5005 26.6057C23.5005 26.8781 23.6189 27.119 23.8101 27.2552C23.628 27.3914 23.5005 27.6324 23.5005 27.9048C23.5005 28.1771 23.6189 28.4181 23.8101 28.5543C23.6189 28.701 23.5005 28.9524 23.5005 29.2352C23.5096 29.6648 23.8284 30 24.2018 30H27.2076C27.6448 30 28 29.5914 28 29.0886V25.4114C28 24.9086 27.6448 24.5 27.2076 24.5H24.2018V24.5105Z" fill="#573739"/>
<path d="M16 18.5C14.8932 18.5 14 17.5345 14 16.3381V13.6514C14 12.4655 14.8932 11.5 16 11.5C17.1068 11.5 18 12.4655 18 13.6619V16.3486C17.9903 17.5345 17.0971 18.5 16 18.5Z" fill="#452829"/>
<path d="M12.76 10.65C12.76 11.5502 12.0302 12.28 11.13 12.28C10.2298 12.28 9.5 11.5502 9.5 10.65C9.5 9.7498 10.2298 9.02002 11.13 9.02002C12.0302 9.02002 12.76 9.7498 12.76 10.65Z" fill="#4E3233"/>
<path d="M22.31 10.65C22.31 11.5502 21.5803 12.28 20.68 12.28C19.7798 12.28 19.05 11.5502 19.05 10.65C19.05 9.7498 19.7798 9.02002 20.68 9.02002C21.5803 9.02002 22.31 9.7498 22.31 10.65Z" fill="#4E3233"/>
<path d="M15.46 3.37012C12.69 3.37012 10.51 5.72012 10.7 8.48012L11.09 14.0301C11.26 15.7701 12.63 17.0101 14.3 17.0101H17.5C19.17 17.0101 20.54 15.7701 20.71 14.0301L21.1 8.48012C21.29 5.72012 19.11 3.37012 16.34 3.37012H15.46Z" fill="#573739"/>
<path d="M18.9899 8.79997C19.0899 8.86997 19.2099 8.90997 19.3199 8.90997C19.4799 8.90997 19.6399 8.83997 19.7499 8.69997C19.9299 8.45997 19.8899 8.10997 19.6499 7.92997C19.6199 7.89997 18.7999 7.27997 17.5999 7.41997C17.2999 7.45997 17.0799 7.72997 17.1199 8.02997C17.1599 8.32997 17.4299 8.54997 17.7299 8.50997C18.4386 8.4226 18.9305 8.75931 18.9861 8.79736C18.9878 8.79851 18.9899 8.79997 18.9899 8.79997Z" fill="black"/>
<path d="M12.06 8.68998C12.17 8.83998 12.33 8.90998 12.5 8.90998C12.61 8.90998 12.72 8.87998 12.82 8.79998C12.82 8.79998 12.825 8.79692 12.8308 8.79312C12.9096 8.74145 13.3907 8.42614 14.08 8.50998C14.38 8.54998 14.65 8.32998 14.69 8.03998C14.72 7.73998 14.51 7.46998 14.21 7.42998C13.02 7.28998 12.19 7.90998 12.16 7.93998C11.92 8.11998 11.88 8.45998 12.06 8.68998Z" fill="black"/>
<path d="M12.17 10.34C12.32 9.74004 12.87 9.29004 13.52 9.29004C14.2 9.29004 14.76 9.78004 14.89 10.41C14.91 10.55 14.8 10.68 14.66 10.68H12.44C12.27 10.68 12.13 10.52 12.17 10.34Z" fill="white"/>
<path d="M19.64 10.34C19.49 9.74004 18.94 9.29004 18.29 9.29004C17.61 9.29004 17.05 9.78004 16.92 10.41C16.9 10.55 17.01 10.68 17.15 10.68H19.37C19.55 10.68 19.68 10.51 19.64 10.34Z" fill="white"/>
<path d="M12.84 10.4501C12.84 9.96006 13.24 9.56006 13.73 9.56006C14.22 9.56006 14.62 9.96006 14.61 10.4501C14.61 10.5401 14.6 10.6101 14.58 10.6901H12.87C12.85 10.6101 12.84 10.5301 12.84 10.4501Z" fill="#7D4533"/>
<path d="M18.97 10.4501C18.97 9.96006 18.57 9.56006 18.08 9.56006C17.59 9.56006 17.19 9.96006 17.2 10.4501C17.2 10.5401 17.21 10.6101 17.23 10.6901H18.94C18.96 10.6101 18.97 10.5301 18.97 10.4501Z" fill="#7D4533"/>
<path d="M13.73 9.93994C14.01 9.93994 14.24 10.1699 14.24 10.4499C14.24 10.5299 14.22 10.6099 14.18 10.6899H13.28C13.24 10.6199 13.22 10.5399 13.22 10.4499C13.22 10.1699 13.45 9.93994 13.73 9.93994Z" fill="black"/>
<path d="M18.0799 9.93994C17.7999 9.93994 17.5699 10.1699 17.5699 10.4499C17.5699 10.5299 17.5899 10.6099 17.6299 10.6899H18.5299C18.5699 10.6199 18.5899 10.5399 18.5899 10.4499C18.5899 10.1699 18.3599 9.93994 18.0799 9.93994Z" fill="black"/>
<path d="M13.59 10.0999C13.59 10.1883 13.5184 10.2599 13.43 10.2599C13.3417 10.2599 13.27 10.1883 13.27 10.0999C13.27 10.0116 13.3417 9.93994 13.43 9.93994C13.5184 9.93994 13.59 10.0116 13.59 10.0999Z" fill="white"/>
<path d="M17.9699 10.0999C17.9699 10.1883 17.8983 10.2599 17.8099 10.2599C17.7215 10.2599 17.6499 10.1883 17.6499 10.0999C17.6499 10.0116 17.7215 9.93994 17.8099 9.93994C17.8983 9.93994 17.9699 10.0116 17.9699 10.0999Z" fill="white"/>
<path d="M15.53 10.3701L15.01 12.0401C14.9 12.3801 15.16 12.7301 15.52 12.7301H16.28C16.64 12.7301 16.89 12.3801 16.79 12.0401L16.28 10.3701C16.16 10.0101 15.65 10.0101 15.53 10.3701Z" fill="#3D2123"/>
<path d="M21.1299 4.34998L20.7099 4.13998C20.4099 3.98998 20.1399 3.78998 19.8999 3.55998L19.0799 2.73998C18.4599 2.11998 17.5499 1.91998 16.7299 2.19998C16.1999 2.38998 15.6199 2.38998 15.0799 2.19998C14.3499 1.83998 13.4799 1.97998 12.9099 2.55998L11.8999 3.55998C11.6599 3.79998 11.3899 3.98998 11.0899 4.13998L10.6699 4.34998C9.88995 4.73998 9.46995 5.58998 9.61995 6.44998L10.1799 9.51998C10.2399 9.82998 10.4999 10.05 10.8099 10.06C10.8099 10.06 10.7499 9.18998 10.7099 8.61998C10.6899 8.32998 10.8099 8.04998 11.0199 7.85998L11.2099 7.69998C11.4599 7.47998 11.5999 7.14998 11.5999 6.81998V5.94998C11.5999 5.70998 11.7699 5.48998 11.9999 5.42998C12.6399 5.26998 13.9999 4.99998 15.8899 4.99998C17.7799 4.99998 19.1399 5.26998 19.7799 5.42998C20.0199 5.48998 20.1799 5.69998 20.1799 5.94998V6.80998C20.1799 7.14998 20.3199 7.46998 20.5699 7.68998L20.7799 7.86998C20.9999 8.05998 21.1099 8.33998 21.0899 8.62998C21.0499 9.18998 20.9899 10.05 20.9899 10.05C21.2899 10.03 21.5499 9.80998 21.5999 9.50998L22.1599 6.43998C22.3299 5.58998 21.8999 4.73998 21.1299 4.34998Z" fill="black"/>
<path d="M15.9 13.7099C15.36 13.7099 14.86 13.5799 14.43 13.3599C14.29 13.2799 14.13 13.4499 14.22 13.5899C14.58 14.1399 15.19 14.4999 15.9 14.4999C16.61 14.4999 17.22 14.1399 17.58 13.5899C17.67 13.4499 17.51 13.2899 17.37 13.3599C16.94 13.5799 16.44 13.7099 15.9 13.7099Z" fill="#290118"/>
</svg>

<svg xmlns="http://www.w3.org/2000/svg" width="32" height="32" fill="none"><path fill="#212121" d="m23 30 2-6-2-5.5H9L7 24l2 6h14Z"/><path fill="#000" d="M23 30V18.593c-1.37 2.46-3.982 4.127-7 4.127a7.99 7.99 0 0 1-7-4.124V30H5v-3.5c-.01-3.41 1.57-6.47 4-8.5v.013a10.982 10.982 0 0 1 7-2.513c2.661 0 5.099.939 7 2.512V18c2.45 2.02 4 5.09 4 8.5V30h-4Z"/><path fill="#000" d="M12.5 29.99v-5.25c0-.28-.22-.5-.5-.5s-.5.22-.5.5v5.25h1ZM16.5 29.99v-5.25c0-.28-.22-.5-.5-.5s-.5.22-.5.5v5.25h1ZM20.5 29.99v-5.25c0-.28-.22-.5-.5-.5s-.5.22-.5.5v5.25h1Z"/><path fill="#9B9B9B" d="m16.92 19.69-.65.58c-.16.14-.39.14-.55 0l-.65-.58a3.449 3.449 0 0 1-1.14-2.55v-3.09A2.07 2.07 0 0 1 16 12c1.14 0 2.06.92 2.06 2.06v3.09c-.01.97-.42 1.89-1.14 2.54Z"/><path fill="#E6E6E6" d="M18.05 15.21H13.94v1.94c0 .97.41 1.9 1.14 2.55.07.06.18.05.24-.03l.58-.84a.13.13 0 0 1 .22 0l.58.84c.05.08.16.09.24.03.72-.65 1.14-1.58 1.14-2.55v-1.94h-.03Z"/><path fill="#422426" d="M26.995 23c.557 0 1.005.407 1.005.914V26h-2v-2.086c-.01-.507.437-.914.995-.914Z"/><path fill="#7D4533" d="M22.62 20.99c-.46 0-.84-.37-.84-.84v-2.33c0-.46.37-.84.84-.84.46 0 .84.37.84.84V18v-.5c0-.28.23-.5.5-.5h2.88c.27 0 .49.22.5.5v.19c.062-.4.405-.71.83-.71.46 0 .84.37.84.84v2.33a.839.839 0 0 1-1.67.13v.22c0 .28-.23.5-.5.5h-.52c.23.047.399.253.39.49 0 .28-.22.5-.5.5h-.07v5.38h-1.5v-5.38h-.07c-.28 0-.5-.22-.5-.5 0-.245.168-.444.398-.49h-.508c-.28 0-.5-.23-.5-.5V20v.15c0 .47-.38.84-.84.84Z"/><path fill="#573739" d="M24.202 24.51c-.374 0-.692.336-.702.765a.825.825 0 0 0 .31.681.814.814 0 0 0-.31.65c0 .272.119.513.31.65a.814.814 0 0 0-.31.649c0 .272.119.513.31.65a.851.851 0 0 0-.31.68c.01.43.328.765.702.765h3.006c.437 0 .792-.409.792-.911V25.41c0-.502-.355-.911-.792-.911h-3.006v.01Z"/><path fill="#452829" d="M16 18.5c-1.107 0-2-.965-2-2.162v-2.687c0-1.185.893-2.151 2-2.151s2 .966 2 2.162v2.687c-.01 1.186-.903 2.151-2 2.151Z"/><path fill="#4E3233" d="M12.76 10.65a1.63 1.63 0 1 1-3.26 0 1.63 1.63 0 0 1 3.26 0ZM22.31 10.65a1.63 1.63 0 1 1-3.26 0 1.63 1.63 0 0 1 3.26 0Z"/><path fill="#573739" d="M15.46 3.37c-2.77 0-4.95 2.35-4.76 5.11l.39 5.55c.17 1.74 1.54 2.98 3.21 2.98h3.2c1.67 0 3.04-1.24 3.21-2.98l.39-5.55c.19-2.76-1.99-5.11-4.76-5.11h-.88Z"/><path fill="#000" d="M18.99 8.8a.544.544 0 0 0 .76-.1c.18-.24.14-.59-.1-.77-.03-.03-.85-.65-2.05-.51a.55.55 0 0 0 .13 1.09c.709-.087 1.2.25 1.256.287a.433.433 0 0 1 .004.003ZM12.06 8.69c.11.15.27.22.44.22.11 0 .22-.03.32-.11l.01-.007c.08-.052.56-.367 1.25-.283.3.04.57-.18.61-.47.03-.3-.18-.57-.48-.61-1.19-.14-2.02.48-2.05.51a.53.53 0 0 0-.1.75Z"/><path fill="#fff" d="M12.17 10.34c.15-.6.7-1.05 1.35-1.05.68 0 1.24.49 1.37 1.12.02.14-.09.27-.23.27h-2.22a.28.28 0 0 1-.27-.34ZM19.64 10.34c-.15-.6-.7-1.05-1.35-1.05-.68 0-1.24.49-1.37 1.12-.02.14.09.27.23.27h2.22c.18 0 .31-.17.27-.34Z"/><path fill="#7D4533" d="M12.84 10.45c0-.49.4-.89.89-.89s.89.4.88.89c0 .09-.01.16-.03.24h-1.71a.986.986 0 0 1-.03-.24ZM18.97 10.45c0-.49-.4-.89-.89-.89s-.89.4-.88.89c0 .09.01.16.03.24h1.71c.02-.08.03-.16.03-.24Z"/><path fill="#000" d="M13.73 9.94a.512.512 0 0 1 .45.75h-.9a.512.512 0 0 1 .45-.75ZM18.08 9.94a.512.512 0 0 0-.45.75h.9a.512.512 0 0 0-.45-.75Z"/><path fill="#fff" d="M13.59 10.1a.16.16 0 1 1-.32 0 .16.16 0 0 1 .32 0ZM17.97 10.1a.16.16 0 1 1-.32 0 .16.16 0 0 1 .32 0Z"/><path fill="#3D2123" d="m15.53 10.37-.52 1.67c-.11.34.15.69.51.69h.76c.36 0 .61-.35.51-.69l-.51-1.67a.395.395 0 0 0-.75 0Z"/><path fill="#000" d="m21.13 4.35-.42-.21c-.3-.15-.57-.35-.81-.58l-.82-.82c-.62-.62-1.53-.82-2.35-.54-.53.19-1.11.19-1.65 0a1.87 1.87 0 0 0-2.17.36l-1.01 1c-.24.24-.51.43-.81.58l-.42.21c-.78.39-1.2 1.24-1.05 2.1l.56 3.07c.06.31.32.53.63.54l-.1-1.44c-.02-.29.1-.57.31-.76l.19-.16c.25-.22.39-.55.39-.88v-.87c0-.24.17-.46.4-.52.64-.16 2-.43 3.89-.43 1.89 0 3.25.27 3.89.43.24.06.4.27.4.52v.86c0 .34.14.66.39.88l.21.18c.22.19.33.47.31.76l-.1 1.42c.3-.02.56-.24.61-.54l.56-3.07c.17-.85-.26-1.7-1.03-2.09Z"/><path fill="#290118" d="M15.9 13.71c-.54 0-1.04-.13-1.47-.35-.14-.08-.3.09-.21.23.36.55.97.91 1.68.91s1.32-.36 1.68-.91c.09-.14-.07-.3-.21-.23-.43.22-.93.35-1.47.35Z"/></svg>
